img/how_to_learn-corner_circle.svg

<svg width="83" height="72" viewBox="0 0 83 72" fill="none" xmlns="http://www.w3.org/2000/svg">
<path d="M62.5001 -39.9315C53.7537 -39.9298 45.1054 -38.2935 37.1152 -35.1285C29.125 -31.9635 21.971 -27.3404 16.1171 -21.5587C15.962 -21.4529 15.8319 -21.3208 15.7347 -21.1699V-21.1699C15.4927 -20.9098 15.2736 -20.6335 15.0791 -20.3436V-20.3436L11.4188 -16.3579C11.2055 -16.1625 11.0382 -15.9313 10.927 -15.6775C3.76649 -6.48583 -0.0476897 4.44087 0.000450136 15.6243C0.0112534 26.6197 3.68605 37.3655 10.5602 46.5032C17.4343 55.6409 27.1991 62.7603 38.6204 66.9614C50.0417 71.1625 62.6066 72.2567 74.7268 70.1057C86.8469 67.9547 97.9781 62.6551 106.713 54.8768C115.449 47.0984 121.396 37.1906 123.803 26.4058C126.21 15.6209 124.969 4.44316 120.237 -5.71439C115.505 -15.8719 107.495 -24.5533 97.2177 -30.6611C86.9409 -36.7688 74.8591 -40.0288 62.5001 -40.0288V-39.9315ZM62.5001 56.3555C54.2314 56.297 46.1345 54.2496 39.0672 50.4301C31.9999 46.6107 26.2255 41.1614 22.356 34.6598C18.4865 28.1582 16.6662 20.8465 17.0875 13.4993C17.5088 6.15207 20.1561 -0.956949 24.7492 -7.07444L28.6282 -11.2544C28.8946 -11.5087 29.1325 -11.7855 29.3385 -12.0808C29.3385 -12.0808 29.3385 -12.0808 29.3385 -12.0808C34.5282 -16.9971 41.0104 -20.6883 48.2018 -22.8224C55.3931 -24.9564 63.0678 -25.4662 70.5356 -24.3061C78.0035 -23.146 85.0302 -20.3524 90.9832 -16.1765C96.9362 -12.0006 101.629 -6.57342 104.639 -0.383359C107.649 5.8067 108.882 12.5655 108.227 19.2848C107.572 26.0041 105.05 32.473 100.887 38.1097C96.7242 43.7464 91.0513 48.3739 84.3792 51.5758C77.7071 54.7777 70.2451 56.4536 62.6642 56.4527L62.5001 56.3555Z" fill="#F7FAFC"/>
<circle cx="62.5" cy="11.5" r="33.5" fill="#F7FAFC"/>
</svg>

<svg width="83" height="72" fill="none" xmlns="http://www.w3.org/2000/svg"><path d="M62.5-39.931c-8.746.001-17.395 1.637-25.385 4.802-7.99 3.165-15.144 7.789-20.998 13.57a1.373 1.373 0 00-.382.39c-.242.26-.461.535-.656.825l-3.66 3.986a2.03 2.03 0 00-.492.68C3.767-6.486-.048 4.441 0 15.624c.011 10.996 3.686 21.741 10.56 30.88C17.434 55.64 27.2 62.76 38.62 66.96c11.422 4.201 23.987 5.296 36.107 3.145 12.12-2.151 23.251-7.45 31.986-15.23 8.736-7.778 14.683-17.685 17.09-28.47s1.166-21.963-3.566-32.12c-4.732-10.158-12.742-18.84-23.02-24.947C86.942-36.77 74.86-40.03 62.5-40.03v.098zm0 96.287c-8.269-.059-16.365-2.106-23.433-5.926C32 46.61 26.226 41.161 22.356 34.66c-3.87-6.502-5.69-13.813-5.269-21.16.422-7.348 3.07-14.457 7.662-20.574l3.88-4.18a5.47 5.47 0 00.71-.827c5.19-4.916 11.671-8.607 18.863-10.741 7.191-2.134 14.866-2.644 22.334-1.484 7.468 1.16 14.494 3.954 20.447 8.13 5.953 4.175 10.646 9.603 13.656 15.793 3.01 6.19 4.243 12.948 3.588 19.668-.655 6.72-3.177 13.188-7.34 18.825-4.163 5.636-9.836 10.264-16.508 13.466-6.672 3.202-14.134 4.878-21.715 4.877l-.164-.098z" fill="#F7FAFC"/><circle cx="62.5" cy="11.5" r="33.5" fill="#F7FAFC"/></svg>
